X:0
T: Pezinho (Little foot)
M:4/4
L:1/8
A:South of Brazil, state of Rio Grande do Sul
C:Trad
R:Gaucho March
Z:Meletti (jrmeletti@email.com)
K:G
Q:220
ddd |: "G"Bddd edcB | "D7"d2A2-AAAB | "D7"cBAB cBcd | "G"B4-Bddd :|\
|: "G"g4-gfed | "D7"f4-fddd | "D7"f4-fedc |1 "G"e4-eddd :|2 "G"B4-B ||
